material/.icons/material/hail.svg

<svg xmlns="http://www.w3.org/2000/svg" viewBox="0 0 24 24"><path d="M4 16h3v6H4v-6M19 2.39c-.08 1.47-.45 2.74-1.14 3.82C17.17 7.29 16.22 8 15 8.39V22h-2v-6h-2v6H9V10.08c-.28.09-.5.2-.61.33C7.45 11.16 7 12.19 7 13.5v.5H5v-.5c0-1.97.72-3.56 2.13-4.78C8.53 7.56 10.16 7 12 7c1.41 0 2.56-.36 3.47-1.05C16.5 5.11 17 3.95 17 2.5V2h2v.39M12 2a2 2 0 012 2 2 2 0 01-2 2 2 2 0 01-2-2 2 2 0 012-2z"/></svg>

<?xml version="1.0" encoding="UTF-8"?><!DOCTYPE svg PUBLIC "-//W3C//DTD SVG 1.1//EN" "http://www.w3.org/Graphics/SVG/1.1/DTD/svg11.dtd"><svg xmlns="http://www.w3.org/2000/svg" xmlns:xlink="http://www.w3.org/1999/xlink" version="1.1" id="mdi-hail" width="24" height="24" viewBox="0 0 24 24"><path d="M4,16H7V22H4V16M19,2.39C18.92,3.86 18.55,5.13 17.86,6.21C17.17,7.29 16.22,8 15,8.39V22H13V16H11V22H9V10.08C8.72,10.17 8.5,10.28 8.39,10.41C7.45,11.16 7,12.19 7,13.5V14H5V13.5C5,11.53 5.72,9.94 7.13,8.72C8.53,7.56 10.16,7 12,7C13.41,7 14.56,6.64 15.47,5.95C16.5,5.11 17,3.95 17,2.5V2H19V2.39M12,2A2,2 0 0,1 14,4A2,2 0 0,1 12,6A2,2 0 0,1 10,4A2,2 0 0,1 12,2Z" /></svg>
